X:1
T:Old Walls of Liscarroll -- Jig
R:jig
B:Ryan's Mammoth Collection
N: 83 424
Z: Contributed by Ray Davies,  ray:davies99.freeserve.co.uk
M:6/8
L:1/8
K:Amix
uA/B/|\
=cBc dcd | e=cB AGE | {d}=cBd cBA | GE=F GAB |
{d}=cBc dcd | e=cB Ace | e=cA AGE | EAA A2:|
|:ue|\
{b}aga Ace | agf edc | {e}dcd EGB | Acf efg |
{b}aga Bdf | agf edc | {e}dcd EGB | Ace a2H "_D.C.":|
